X: 37026
T: Silhouette, The
R: jig
M: 6/8
K: Dmajor
d2 F ABF|dAB dBA|dAF ABF|E2 e ecA|
d2 F ABF|dFG A2f|gfe dcA|AdF D3:|
A2 f afd|egB egB|A2 f afd|eaa age|
A2 f afd|egB egB|A2 f gec|AdF D3:|

